icons/numix/32x32/mimetypes/wps-office-wpt.svg

<?xml version="1.0" encoding="UTF-8" standalone="no"?>
<svg
   xmlns:dc="http://purl.org/dc/elements/1.1/"
   xmlns:cc="http://creativecommons.org/ns#"
   xmlns:rdf="http://www.w3.org/1999/02/22-rdf-syntax-ns#"
   xmlns:svg="http://www.w3.org/2000/svg"
   xmlns="http://www.w3.org/2000/svg"
   xmlns:sodipodi="http://sodipodi.sourceforge.net/DTD/sodipodi-0.dtd"
   xmlns:inkscape="http://www.inkscape.org/namespaces/inkscape"
   width="32"
   height="32"
   viewBox="0 0 32 32"
   id="svg2"
   version="1.1"
   inkscape:version="0.48.5 r10040"
   sodipodi:docname="wps-office-wpt.svg">
  <metadata
     id="metadata36">
    <rdf:RDF>
      <cc:Work
         rdf:about="">
        <dc:format>image/svg+xml</dc:format>
        <dc:type
           rdf:resource="http://purl.org/dc/dcmitype/StillImage" />
      </cc:Work>
    </rdf:RDF>
  </metadata>
  <defs
     id="defs34" />
  <sodipodi:namedview
     pagecolor="#ffffff"
     bordercolor="#666666"
     borderopacity="1"
     objecttolerance="10"
     gridtolerance="10"
     guidetolerance="10"
     inkscape:pageopacity="0"
     inkscape:pageshadow="2"
     inkscape:window-width="1280"
     inkscape:window-height="970"
     id="namedview32"
     showgrid="true"
     inkscape:zoom="29.5"
     inkscape:cx="16.713226"
     inkscape:cy="5.616175"
     inkscape:window-x="0"
     inkscape:window-y="0"
     inkscape:window-maximized="1"
     inkscape:current-layer="svg2">
    <inkscape:grid
       type="xygrid"
       id="grid3036" />
  </sodipodi:namedview>
  <path
     inkscape:connector-curvature="0"
     style="fill:#3468ce;fill-opacity:1"
     d="M 5.34375,0 C 4.656276,1.5e-5 4,0.689007 4,1.40625 l 0,29.1875 C 4,31.270239 4.695336,32 5.34375,32 l 21.3125,0 C 27.304664,32 28,31.270239 28,30.59375 L 28,8.999999 28,1.375 C 28,0.702049 27.297951,0 26.625,0 L 19,0 5.34375,0 z"
     id="path4-1" />
  <rect
     style="fill:#f9f9f9;fill-opacity:1;fill-rule:evenodd;stroke:none"
     id="rect3029"
     width="6"
     height="5"
     x="10"
     y="10" />
  <rect
     style="fill:#f9f9f9;fill-opacity:1;fill-rule:evenodd;stroke:none"
     id="rect3031"
     width="5"
     height="1"
     x="17"
     y="10" />
  <rect
     style="fill:#f9f9f9;fill-opacity:1;fill-rule:evenodd;stroke:none"
     id="rect3033"
     width="5"
     height="1"
     x="17"
     y="12" />
  <rect
     style="fill:#f9f9f9;fill-opacity:1;fill-rule:evenodd;stroke:none"
     id="rect3035"
     width="5"
     height="1"
     x="17"
     y="14" />
  <rect
     style="fill:#f9f9f9;fill-opacity:1;fill-rule:evenodd;stroke:none"
     id="rect3037"
     width="12"
     height="1"
     x="10"
     y="16" />
  <rect
     style="fill:#f9f9f9;fill-opacity:1;fill-rule:evenodd;stroke:none"
     id="rect3039"
     width="12"
     height="1"
     x="10"
     y="17.999998" />
  <rect
     style="fill:#f9f9f9;fill-opacity:1;fill-rule:evenodd;stroke:none"
     id="rect3041"
     width="12"
     height="1"
     x="10"
     y="19.999998" />
  <path
     style="fill:#000000;fill-opacity:0.19599998"
     d="m 4,24 0,6.667969 C 4,31.316407 4.6875,32 5.332031,32 l 21.335938,0 C 27.3125,32 28,31.316407 28,30.667969 L 28,24 z"
     id="path22"
     inkscape:connector-curvature="0" />
  <g
     style="fill:#ffffff"
     id="g24"
     transform="matrix(1.0519309,0,0,1.0519309,-0.84513621,-0.55792591)">
    <path
       d="m 11.839844,26.59375 c 0.02344,0.105469 0.0625,0.238281 0.109375,0.398438 0.05078,0.160156 0.101562,0.335937 0.15625,0.527343 0.0625,0.195313 0.125,0.402344 0.195312,0.625 0.07031,0.21875 0.140625,0.445313 0.210938,0.679688 0,-0.296875 -0.0039,-0.609375 -0.01172,-0.945313 -0.0039,-0.339844 -0.01172,-0.6875 -0.01563,-1.039062 -0.0078,-0.351563 -0.01172,-0.707032 -0.01953,-1.066406 -0.0078,-0.363282 -0.0078,-0.710938 -0.0078,-1.046876 l 1.046875,0 c -0.01953,0.429688 -0.03906,0.878907 -0.05859,1.335938 -0.01562,0.457031 -0.03906,0.910156 -0.0625,1.363281 -0.02344,0.449219 -0.05469,0.894531 -0.08984,1.332031 -0.03125,0.4375 -0.07031,0.851563 -0.113281,1.242188 l -0.933594,0 c -0.136719,-0.359375 -0.269532,-0.742188 -0.40625,-1.148438 -0.132813,-0.417968 -0.269532,-0.8125 -0.402344,-1.1875 -0.136719,0.359376 -0.277344,0.75 -0.421875,1.167969 C 10.867188,29.253906 10.730469,29.640625 10.609375,30 l -0.9375,0 C 9.625,29.609375 9.582031,29.195312 9.542969,28.757812 9.507812,28.3125 9.472656,27.867188 9.445312,27.417969 9.417969,26.964844 9.398438,26.507812 9.378906,26.054688 9.359375,25.59375 9.34375,25.152344 9.332031,24.726562 l 1.046875,0 c -0.0039,0.335938 -0.01172,0.679688 -0.01563,1.039063 -0.0078,0.359375 -0.01563,0.714844 -0.01953,1.074219 -0.0078,0.351562 -0.01172,0.699218 -0.01953,1.039062 -0.0039,0.335938 -0.0078,0.648438 -0.0078,0.945313 0.05469,-0.183594 0.117188,-0.378907 0.183594,-0.597657 0.07422,-0.214843 0.140625,-0.425781 0.203125,-0.636718 0.06641,-0.210938 0.128906,-0.402344 0.183594,-0.582032 0.05469,-0.175781 0.09766,-0.3125 0.128906,-0.414062 l 0.824219,0"
       id="path26"
       inkscape:connector-curvature="0" />
    <path
       d="m 15.769531,24.667969 c 0.722657,0 1.285157,0.136719 1.679688,0.417969 0.398437,0.269531 0.597656,0.71875 0.597656,1.34375 0,0.632812 -0.203125,1.089843 -0.605469,1.371093 -0.398437,0.28125 -0.964844,0.417969 -1.699218,0.417969 l -0.402344,0 0,1.78125 -1.128906,0 0,-5.207031 c 0.109374,-0.01953 0.230468,-0.04297 0.367187,-0.05859 0.140625,-0.01563 0.28125,-0.02734 0.421875,-0.03516 0.140625,-0.01172 0.277344,-0.01953 0.414062,-0.02344 0.132813,-0.0078 0.253907,-0.0078 0.355469,-0.0078 m 0.128907,0.910156 c -0.06641,0 -0.160157,0.0039 -0.285157,0.0078 -0.117187,0 -0.207031,0.0078 -0.273437,0.01953 l 0,1.703125 0.457031,0 c 0.363281,0 0.632813,-0.06641 0.816406,-0.195313 0.1875,-0.136719 0.277344,-0.367187 0.277344,-0.691406 0,-0.308594 -0.08984,-0.523437 -0.277344,-0.648437 -0.175781,-0.128907 -0.414062,-0.195313 -0.714843,-0.195313"
       id="path28"
       inkscape:connector-curvature="0" />
    <path
       d="m 22.667969,24.726562 0,0.867188 -1.5,0 0,4.40625 -1.136719,0 0,-4.40625 -1.496094,0 0,-0.867188 4.132813,0"
       id="path30"
       inkscape:connector-curvature="0" />
  </g>
</svg>

<svg width="32" xmlns="http://www.w3.org/2000/svg" height="32" viewBox="0 0 32 32" xmlns:xlink="http://www.w3.org/1999/xlink">
<path style="fill:#3468ce" d="M 5.332031 0.667969 C 4.648438 0.667969 4 1.3125 4 2 L 4 30 C 4 30.648438 4.6875 31.332031 5.332031 31.332031 L 26.667969 31.332031 C 27.3125 31.332031 28 30.648438 28 30 L 28 2 C 28 1.3125 27.351562 0.667969 26.667969 0.667969 Z "/>
<path style="fill:#fff" d="M 10.71875 10.667969 L 15.28125 10.667969 C 15.492188 10.667969 15.667969 10.847656 15.667969 11.066406 L 15.667969 14.933594 C 15.667969 15.152344 15.492188 15.332031 15.28125 15.332031 L 10.71875 15.332031 C 10.507812 15.332031 10.332031 15.152344 10.332031 14.933594 L 10.332031 11.066406 C 10.332031 10.847656 10.507812 10.667969 10.71875 10.667969 Z "/>
<g style="stroke-linecap:round;fill:none;stroke:#fff;stroke-linejoin:round">
<path d="M 26.498047 17.5 L 31.501953 17.5 " transform="matrix(.66667 0 0 .66667 -.33333 -.66667)"/>
<path d="M 26.498047 20.5 L 31.501953 20.5 " transform="matrix(.66667 0 0 .66667 -.33333 -.66667)"/>
<path d="M 26.498047 23.5 L 31.501953 23.5 " transform="matrix(.66667 0 0 .66667 -.33333 -.66667)"/>
<path d="M 15.998047 26.5 L 32 26.5 " transform="matrix(.66667 0 0 .66667 -.33333 -.66667)"/>
<path d="M 15.998047 29.5 L 32 29.5 " transform="matrix(.66667 0 0 .66667 -.33333 -.66667)"/>
<path d="M 15.998047 32.5 L 32 32.5 " transform="matrix(.66667 0 0 .66667 -.33333 -.66667)"/>
</g>
<path style="fill:#000;fill-opacity:.196" d="M 4 23.332031 L 4 30 C 4 30.648438 4.6875 31.332031 5.332031 31.332031 L 26.667969 31.332031 C 27.3125 31.332031 28 30.648438 28 30 L 28 23.332031 Z "/>
<g style="fill:#fff">
<path d="M 11.839844 26.59375 C 11.863281 26.699219 11.902344 26.832031 11.949219 26.992188 C 12 27.152344 12.050781 27.328125 12.105469 27.519531 C 12.167969 27.714844 12.230469 27.921875 12.300781 28.144531 C 12.371094 28.363281 12.441406 28.589844 12.511719 28.824219 C 12.511719 28.527344 12.507812 28.214844 12.5 27.878906 C 12.496094 27.539062 12.488281 27.191406 12.484375 26.839844 C 12.476562 26.488281 12.472656 26.132812 12.464844 25.773438 C 12.457031 25.410156 12.457031 25.0625 12.457031 24.726562 L 13.503906 24.726562 C 13.484375 25.15625 13.464844 25.605469 13.445312 26.0625 C 13.429688 26.519531 13.40625 26.972656 13.382812 27.425781 C 13.359375 27.875 13.328125 28.320312 13.292969 28.757812 C 13.261719 29.195312 13.222656 29.609375 13.179688 30 L 12.246094 30 C 12.109375 29.640625 11.976562 29.257812 11.839844 28.851562 C 11.707031 28.433594 11.570312 28.039062 11.4375 27.664062 C 11.300781 28.023438 11.160156 28.414062 11.015625 28.832031 C 10.867188 29.253906 10.730469 29.640625 10.609375 30 L 9.671875 30 C 9.625 29.609375 9.582031 29.195312 9.542969 28.757812 C 9.507812 28.3125 9.472656 27.867188 9.445312 27.417969 C 9.417969 26.964844 9.398438 26.507812 9.378906 26.054688 C 9.359375 25.59375 9.34375 25.152344 9.332031 24.726562 L 10.378906 24.726562 C 10.375 25.0625 10.367188 25.40625 10.363281 25.765625 C 10.355469 26.125 10.347656 26.480469 10.34375 26.839844 C 10.335938 27.191406 10.332031 27.539062 10.324219 27.878906 C 10.320312 28.214844 10.316406 28.527344 10.316406 28.824219 C 10.371094 28.640625 10.433594 28.445312 10.5 28.226562 C 10.574219 28.011719 10.640625 27.800781 10.703125 27.589844 C 10.769531 27.378906 10.832031 27.1875 10.886719 27.007812 C 10.941406 26.832031 10.984375 26.695312 11.015625 26.59375 L 11.839844 26.59375 "/>
<path d="M 15.769531 24.667969 C 16.492188 24.667969 17.054688 24.804688 17.449219 25.085938 C 17.847656 25.355469 18.046875 25.804688 18.046875 26.429688 C 18.046875 27.0625 17.84375 27.519531 17.441406 27.800781 C 17.042969 28.082031 16.476562 28.21875 15.742188 28.21875 L 15.339844 28.21875 L 15.339844 30 L 14.210938 30 L 14.210938 24.792969 C 14.320312 24.773438 14.441406 24.75 14.578125 24.734375 C 14.71875 24.71875 14.859375 24.707031 15 24.699219 C 15.140625 24.6875 15.277344 24.679688 15.414062 24.675781 C 15.546875 24.667969 15.667969 24.667969 15.769531 24.667969 M 15.898438 25.578125 C 15.832031 25.578125 15.738281 25.582031 15.613281 25.585938 C 15.496094 25.585938 15.40625 25.59375 15.339844 25.605469 L 15.339844 27.308594 L 15.796875 27.308594 C 16.160156 27.308594 16.429688 27.242188 16.613281 27.113281 C 16.800781 26.976562 16.890625 26.746094 16.890625 26.421875 C 16.890625 26.113281 16.800781 25.898438 16.613281 25.773438 C 16.4375 25.644531 16.199219 25.578125 15.898438 25.578125 "/>
<path d="M 22.667969 24.726562 L 22.667969 25.59375 L 21.167969 25.59375 L 21.167969 30 L 20.03125 30 L 20.03125 25.59375 L 18.535156 25.59375 L 18.535156 24.726562 L 22.667969 24.726562 "/>
</g>
</svg>
